X:17371
T:The Yellow Tinker
M:4/4
L:1/8
K:G
=FE|DG G2 D=FCF|DG G2 dGBG|DG G2 D=F F2|cA=FA c2:|
Bc|dG G2 d2 Bc|dg g2 fdcA|dG G2 d2 Bd|cA=FA c2 Bc|dG G2 d2 Bc|dg g2
fgag |f2 de f2 de|fgag fdcA|| d2 BG (3Bcd BG|(3Bcd BG c2 Bc|d2 BG
Bcde|=fdcA FAcA|d2 BG (3Bcd BG|(3Bcd
 BG c2 Bc|d^cde =f2 ed|cA=FA G2|
